build/svg/cmd/lc_bold.svg

<?xml version="1.0" encoding="UTF-8" standalone="no"?>
<svg
   xmlns:dc="http://purl.org/dc/elements/1.1/"
   xmlns:cc="http://creativecommons.org/ns#"
   xmlns:rdf="http://www.w3.org/1999/02/22-rdf-syntax-ns#"
   xmlns:svg="http://www.w3.org/2000/svg"
   xmlns="http://www.w3.org/2000/svg"
   xmlns:sodipodi="http://sodipodi.sourceforge.net/DTD/sodipodi-0.dtd"
   xmlns:inkscape="http://www.inkscape.org/namespaces/inkscape"
   inkscape:version="1.0 (1.0+r72)"
   inkscape:export-ydpi="96"
   inkscape:export-xdpi="96"
   inkscape:export-filename="/home/jupiter007/Libreoffice yaru theme fullcolor/build/cmd/lc_bold.png"
   sodipodi:docname="lc_bold.svg"
   id="svg4"
   version="1.1"
   viewBox="0 0 24 24">
  <path
     id="path2007"
     style="fill:#000000;stroke-width:2;stroke:#000000;opacity:0.6;stroke-miterlimit:4;stroke-dasharray:none;stroke-linejoin:round"
     d="M 5 4 L 5 8.4550781 L 5 11 L 5 11.662109 L 5 16.294922 L 5 20 L 9.2871094 20 L 14.642578 20 C 17.61043 20 20 17.933295 20 15.367188 C 20 13.324533 18.4759 11.619043 16.361328 11 C 17.265745 10.289569 17.857422 9.1728895 17.857422 7.8984375 C 17.857422 5.738826 16.184922 4 14.107422 4 L 9.2871094 4 L 5 4 z M 8 7 L 12 7 C 13.108 7 14 7.669 14 8.5 C 14 9.331 13.108 10 12 10 L 8 10 L 8 7 z M 8 13 L 13 13 C 14.662 13 16 13.892 16 15 C 16 16.108 14.662 17 13 17 L 8 17 L 8 13 z " />
  <path
     d="M 5 4 L 5 8.4550781 L 5 11 L 5 11.662109 L 5 16.294922 L 5 20 L 9.2871094 20 L 14.642578 20 C 17.61043 20 20 17.933295 20 15.367188 C 20 13.324533 18.4759 11.619043 16.361328 11 C 17.265745 10.289569 17.857422 9.1728895 17.857422 7.8984375 C 17.857422 5.738826 16.184922 4 14.107422 4 L 9.2871094 4 L 5 4 z M 8 7 L 12 7 C 13.108 7 14 7.669 14 8.5 C 14 9.331 13.108 10 12 10 L 8 10 L 8 7 z M 8 13 L 13 13 C 14.662 13 16 13.892 16 15 C 16 16.108 14.662 17 13 17 L 8 17 L 8 13 z "
     style="fill:#ffffff;stroke-width:1.0924"
     id="path1988" />
  <metadata
     id="metadata10">
    <rdf:RDF>
      <cc:Work
         rdf:about="">
        <dc:format>image/svg+xml</dc:format>
        <dc:type
           rdf:resource="http://purl.org/dc/dcmitype/StillImage" />
      </cc:Work>
    </rdf:RDF>
  </metadata>
  <defs
     id="defs8" />
  <sodipodi:namedview
     inkscape:document-rotation="0"
     inkscape:current-layer="svg4"
     inkscape:window-maximized="1"
     inkscape:window-y="32"
     inkscape:window-x="0"
     inkscape:cy="11.677842"
     inkscape:cx="8.4642932"
     inkscape:zoom="27.812867"
     showgrid="true"
     id="namedview6"
     inkscape:window-height="1011"
     inkscape:window-width="1920"
     inkscape:pageshadow="2"
     inkscape:pageopacity="0"
     guidetolerance="10"
     gridtolerance="10"
     objecttolerance="10"
     borderopacity="1"
     bordercolor="#666666"
     pagecolor="#ffffff">
    <inkscape:grid
       id="grid817"
       type="xygrid" />
  </sodipodi:namedview>
</svg>

<svg xmlns="http://www.w3.org/2000/svg" viewBox="0 0 24 24"><path d="M5 4v16h9.643C17.61 20 20 17.933 20 15.367c0-2.042-1.524-3.748-3.639-4.367a3.927 3.927 0 001.496-3.102c0-2.16-1.672-3.898-3.75-3.898H5zm3 3h4c1.108 0 2 .669 2 1.5s-.892 1.5-2 1.5H8V7zm0 6h5c1.662 0 3 .892 3 2s-1.338 2-3 2H8v-4z" stroke-width="2" stroke="#000" opacity=".6" stroke-linejoin="round"/><path d="M5 4v16h9.643C17.61 20 20 17.933 20 15.367c0-2.042-1.524-3.748-3.639-4.367a3.927 3.927 0 001.496-3.102c0-2.16-1.672-3.898-3.75-3.898H5zm3 3h4c1.108 0 2 .669 2 1.5s-.892 1.5-2 1.5H8V7zm0 6h5c1.662 0 3 .892 3 2s-1.338 2-3 2H8v-4z" fill="#fff"/></svg>
